Newaita/actions/16/flag.svg

<svg height="16" viewBox="0 0 16 16" width="16" xmlns="http://www.w3.org/2000/svg"><g fill="#424242"><path d="m1.984375 2.441406h.660156c.183594 0 .332031.148438.332031.328125v11.578125c0 .183594-.148437.332032-.332031.332032h-.660156c-.183594 0-.332031-.148438-.332031-.332032v-11.578125c0-.179687.148437-.328125.332031-.328125zm0 0"/><path d="m2.316406 1.449219c.546875 0 .992188.441406.992188.992187 0 .546875-.445313.992188-.992188.992188-.550781 0-.992187-.445313-.992187-.992188 0-.550781.441406-.992187.992187-.992187zm0 0"/><path d="m2.316406 4.09375c-.183594 0-.332031.148438-.332031.332031v4.628907c0 .183593.148437.332031.332031.332031h4.867188l-.226563.910156c-.023437.101563-.003906.203125.058594.285156.0625.078125.160156.125.261719.125h6.945312c.136719 0 .261719-.082031.308594-.210937.050781-.128906.011719-.277344-.089844-.367188l-2.363281-2.066406 2.363281-2.066406c.101563-.089844.140625-.234375.089844-.363282-.046875-.128906-.171875-.214843-.308594-.214843h-5.199218l.226562-.914063c.027344-.097656.003906-.203125-.058594-.28125-.0625-.082031-.160156-.128906-.261718-.128906zm.328125.660156h5.863281l-.226562.914063c-.027344.097656-.003906.203125.058594.28125.0625.082031.160156.128906.261718.128906h4.742188l-1.984375 1.738281c-.070313.0625-.113281.152344-.113281.246094 0 .097656.042968.1875.113281.25l1.984375 1.734375h-5.644531l.230469-.910156c.023437-.101563 0-.203125-.0625-.285157-.0625-.078124-.15625-.125-.257813-.125h-4.964844zm0 0"/></g></svg>

<svg xmlns="http://www.w3.org/2000/svg" xmlns:xlink="http://www.w3.org/1999/xlink" width="16px" height="16px" viewBox="0 0 16 16" version="1.1">
<g id="surface1">
     <defs>
  <style id="current-color-scheme" type="text/css">
   .ColorScheme-Text { color:#424242; } .ColorScheme-Highlight { color:#eeeeee; }
  </style>
 </defs>
<path style="fill:currentColor" class="ColorScheme-Text" d="M 1.984375 2.441406 L 2.644531 2.441406 C 2.828125 2.441406 2.976562 2.589844 2.976562 2.769531 L 2.976562 14.347656 C 2.976562 14.53125 2.828125 14.679688 2.644531 14.679688 L 1.984375 14.679688 C 1.800781 14.679688 1.652344 14.53125 1.652344 14.347656 L 1.652344 2.769531 C 1.652344 2.589844 1.800781 2.441406 1.984375 2.441406 Z M 1.984375 2.441406 "/>
     <defs>
  <style id="current-color-scheme" type="text/css">
   .ColorScheme-Text { color:#424242; } .ColorScheme-Highlight { color:#eeeeee; }
  </style>
 </defs>
<path style="fill:currentColor" class="ColorScheme-Text" d="M 2.316406 1.449219 C 2.863281 1.449219 3.308594 1.890625 3.308594 2.441406 C 3.308594 2.988281 2.863281 3.433594 2.316406 3.433594 C 1.765625 3.433594 1.324219 2.988281 1.324219 2.441406 C 1.324219 1.890625 1.765625 1.449219 2.316406 1.449219 Z M 2.316406 1.449219 "/>
     <defs>
  <style id="current-color-scheme" type="text/css">
   .ColorScheme-Text { color:#424242; } .ColorScheme-Highlight { color:#eeeeee; }
  </style>
 </defs>
<path style="fill:currentColor" class="ColorScheme-Text" d="M 2.316406 4.09375 C 2.132812 4.09375 1.984375 4.242188 1.984375 4.425781 L 1.984375 9.054688 C 1.984375 9.238281 2.132812 9.386719 2.316406 9.386719 L 7.183594 9.386719 L 6.957031 10.296875 C 6.933594 10.398438 6.953125 10.5 7.015625 10.582031 C 7.078125 10.660156 7.175781 10.707031 7.277344 10.707031 L 14.222656 10.707031 C 14.359375 10.707031 14.484375 10.625 14.53125 10.496094 C 14.582031 10.367188 14.542969 10.21875 14.441406 10.128906 L 12.078125 8.0625 L 14.441406 5.996094 C 14.542969 5.90625 14.582031 5.761719 14.53125 5.632812 C 14.484375 5.503906 14.359375 5.417969 14.222656 5.417969 L 9.023438 5.417969 L 9.25 4.503906 C 9.277344 4.40625 9.253906 4.300781 9.191406 4.222656 C 9.128906 4.140625 9.03125 4.09375 8.929688 4.09375 Z M 2.644531 4.753906 L 8.507812 4.753906 L 8.28125 5.667969 C 8.253906 5.765625 8.277344 5.871094 8.339844 5.949219 C 8.402344 6.03125 8.5 6.078125 8.601562 6.078125 L 13.34375 6.078125 L 11.359375 7.816406 C 11.289062 7.878906 11.246094 7.96875 11.246094 8.0625 C 11.246094 8.160156 11.289062 8.25 11.359375 8.3125 L 13.34375 10.046875 L 7.699219 10.046875 L 7.929688 9.136719 C 7.953125 9.035156 7.929688 8.933594 7.867188 8.851562 C 7.804688 8.773438 7.710938 8.726562 7.609375 8.726562 L 2.644531 8.726562 Z M 2.644531 4.753906 "/>
</g>
</svg>
